X:1
T:Kirmanshah
T:Kirmanshah
T:Oriental Intermezzo
T:EDW. B. CLAYPOOLE
T:Copyright 1917 by Artmusic,Inc
T:Copyright 1917 by Artmusic,Inc
T:Copyright 1917 by Artmusic,Inc
T:Copyright 1917 by Artmusic,Inc
C:EDW. B. CLAYPOOLE
Z:Copyright 1917 by Artmusic,Inc
%%score { ( 1 4 ) | ( 2 3 ) }
L:1/8
Q:1/4=80
M:2/4
K:G
V:1 treble nm="Piano" snm="Pno."
V:4 treble 
V:2 treble 
V:3 treble 
V:1
"^Moderato"!mf! .b/.c'/.d'/.e'/ .d'/.c'/.b | .B/.c/.d/.e/ .d/.c/.B | .B,/.C/.D/.E/ .D/.C/.B, | %3
 .A, z!sfz! !^![DFcd] z/"_R.H."[I:staff +1] (3D,/4E,/4F,/4 || %4
!mp!"_R.H.""_staccato"[I:staff -1] x4 | .C.B,/.A,/ !tenuto!D2 | z .A,/.G,/ .B,.A,/.G,/ | %7
 .C.B,/.A,/ !tenuto!D2 | z/!<(! .B,/.C/.^C/ .D/!<)!.G/(.E/.G/ | .D/).G/(!>!.E/.G/ .D/).G/.C/.G/ | %10
 .B,/.C/.D/.E/ .D/.C/.B, | .A, !tenuto!D3 | z .A,/.G,/ .B,.A,/.G,/ | .C.B,/.A,/ !tenuto!D2 | %14
 z .A,/.G,/ .B,.A,/.G,/ | .C.B,/.A,/ !tenuto!D2 | z/!<(! .B,/.C/.^C/ .D/!<)!.G/(!>!.E/.G/ | %17
 .D/).G/.=C/.G/ .B, z | (CD/C/ [G,B,][F,A,]) | [G,D][G,_D_E][G,C=E][CG] | %20
"_dim." .[^CGB]!>(! z z!>)! .[=CDA] | .[B,DG] z!sfz! !>![DF^Ad]2 || .D/.E/.G/.=A/ .B/.d/.B/.G/ | %23
 (3A/B/A/ !tenuto!E2 .[FB] | .D/.E/.G/.=A/ .B/.d/.B/.G/ | (3A/B/A/ !tenuto!E2 .[FB] | %26
 z .D/.E/ .G/.A/.B/.d/ | .^d/.f/.d/.B/ .^c.d/.B/ | .^c.^d/.B/ .c.d/.B/ | .B z !>![F^A=d]2 | %30
 .D/.E/.G/.=A/ .B/.d/.B/.G/ | (3A/B/A/ !tenuto!E2 .[FB] | .D/.E/.G/.=A/ .B/.d/.B/.G/ | %33
 (3A/B/A/ !tenuto!E2 .[FB] | z .D/.E/ .G/.A/.B/.d/ | .^d/.f/.d/.B/ .^c.d/.B/ | %36
 .^c.^d/.B/ .c.d/.B/ | .B z !>![=DF^A=d]2 ||!mp!"_R.H." x4 | .C.B,/.A,/ !tenuto!D2 | %40
 z .A,/.G,/ .B,.A,/.G,/ | .C.B,/.A,/ !tenuto!D2 | z/!<(! .B,/.C/.^C/ .D/!<)!.G/(.E/.G/ | %43
 .D/).G/(!>!.E/.G/ .D/).G/.C/.G/ | .B,/.C/.D/.E/ .D/.C/.B, | .A, !tenuto!D3 | %46
 z .A,/.G,/ .B,.A,/.G,/ | .C.B,/.A,/ !tenuto!D2 | z .A,/.G,/ .B,.A,/.G,/ | .C.B,/.A,/ !tenuto!D2 | %50
 z/!<(! .B,/.C/.^C/ .D/!<)!.G/(!>!.E/.G/ | .D/).G/.=C/.G/ .B, z | (CD/C/ [G,B,][F,A,]) | %53
 [G,D][G,_D_E][G,C=E][CG] |"_dim." .[^CGB]!>(! z z!>)! .[=CDA] | .[B,DG] z .!^![GBdg] z || %56
!mf! z/ G/A/_B/ c/!tenuto!dB/ | .c>!>!_A- A/!tenuto!cA/ | ._B>!>!G- G/!tenuto!BG/ | %59
 ._A/._B/.c/!>!_e/- e/.c/.A/.G/ | z/ ^F/G/^G/ =A/!tenuto!_eA/ | _e3/2{/^G}!>!A/- A/!tenuto!eA/ | %62
 _e3/2{/^G}A/- A/!tenuto!eA/ | [Dd]4 | z/ G/A/_B/ c/!tenuto!dB/ | .c>!>!_A- A/!tenuto!cA/ | %66
 ._B>!>!G- G/!tenuto!BG/ | ._A/._B/.c/!>!_e/- e/.c/.A/.G/ | z/ ^F/G/^G/ =A/!tenuto!_eA/ | %69
 _e3/2{/^G}!>!A/- A/!tenuto!eA/ | ._e3/2{/^G}!>!A/- A/!tenuto!dD/ | %71
 .G z !^![G_Bdg] z/"_R.H."[I:staff +1] (3D,/4E,/4F,/4 ||[I:staff -1] z/ g/a/=f/ g/df/ | %73
 .g>!>!=f- f/df/ | g/=f/d/_B/- B/Ad/ | .G z z2 | z/ g/a/=f/ g/df/ | .g>!>!=f- f/df/ | %78
 g/=f/d/_B/- B/AB/ | .A z z2 | !>![Dd]4 | !>![Dd]4 | [^C^c]4 | .[DFAd]2 z2 | !>![Dd]4 | !>![Dd]4 | %86
 !>![^C^c]4 | [DFAd]2 z2 ||!ff! z/ G/A/_B/ c/!tenuto!dB/ | .c>!>!_A- A/!tenuto!cA/ | %90
 ._B>!>!G- G/!tenuto!BG/ | ._A/._B/.c/!>!_e/- e/.c/.A/.G/ | z/ ^F/G/^G/ =A/!tenuto!_eA/ | %93
 _e3/2{/^G}!>!A/- A/!tenuto!eA/ | _e3/2{/^G}A/- A/!tenuto!eA/ | [Dd]4 | z/ G/A/_B/ c/!tenuto!dB/ | %97
 .c>!>!_A- A/!tenuto!cA/ | ._B>!>!G- G/!tenuto!BG/ | ._A/._B/.c/!>!_e/- e/.c/.A/.G/ | %100
 z/ ^F/G/^G/ =A/!tenuto!_eA/ | _e3/2{/^G}!>!A/- A/!tenuto!eA/ | ._e3/2{/^G}!>!A/- A/!tenuto!dD/ | %103
 .G z !^![G_Bdg] z ||!mp!"_R.H." x4 | .C.B,/.A,/ !tenuto!D2 | z .A,/.G,/ .B,.A,/.G,/ | %107
 .C.B,/.A,/ !tenuto!D2 | z/!<(! .B,/.C/.^C/ .D/!<)!.G/(!>!.E/.G/ | %109
 .D/).G/(!>!.E/.G/ .D/).G/.C/.G/ | .B,/.C/.D/.E/ .D/.C/.B, | .A, !>!D3 | z .A,/.G,/ .B,.A,/.G,/ | %113
 .C.B,/.A,/ !tenuto!D2 | z .A,/.G,/ .B,.A,/.G,/ | .C.B,/.A,/ !tenuto!D2 | %116
 z/!<(! .B,/.C/.^C/ .D/!<)!.G/(!>!.E/.G/ | .D/).G/.=C/.G/ .B, z | (CD/C/ [G,B,][F,A,]) | %119
 [G,D][G,_D_E][G,C=E][CG] |"_dim." .[^CGB]!>(! z z!>)! .[=CDA] | .[B,DG] z!sfz! !^![GBdg] z |] %122
V:2
 .g/.a/.b/.c'/ .b/.a/.g | .G/.A/.B/.c/ .B/.A/.G |[K:bass] .G,/.A,/.B,/.C/ .B,/.A,/.G, | %3
[K:bass] .F, z !^![D,,D,] z || .G,.A,/.G,/ .B,.A,/.G,/ | .F,, !>!D,2 .D,, | .F,, !>!D,2 .D,, | %7
 .F,, !>!D,2 .D,, | G,, D,B,(=C | .B,)(!>!C.B,).A, | .G,/.A,/.B,/.C/ .B,/.A,/.G, | (F,E,D,C,) | %12
 .F,, !>!D,2 .D,, | .F,, !>!D,2 .D,, | .F,, !>!D,2 .D,, | .F,, !>!D,2 .D,, | !>!G,, D,B,(!>!=C | %17
 B,).A, .G, z | (E,_E,D,C,) | B,,_B,,A,,=E, | .[A,,E,] z z .[D,F,] | .[G,,G,] z !>![D,,D,]2 || %22
 G,,[D,G,B,] G,,[D,G,B,] | G,,[D,F,C] G,,[D,F,C] | G,,[D,G,B,] G,,[D,G,B,] | %25
 G,,[D,F,C] G,,[D,F,C] | !>!G,,[D,G,B,] G,,[D,G,B,] | F,,[F,B,^D] F,,[^G,B,^C^E] | %28
 F,,[=G,B,^C=E] F,,[F,^A,E] | .[B,^D] z !>![=D,=C]2 | G,,[D,G,B,] G,,[D,G,B,] | %31
 G,,[D,F,C] G,,[D,F,C] | G,,[D,G,B,] G,,[D,G,B,] | G,,[D,F,C] G,,[D,F,C] | %34
 !>!G,,[D,G,B,] G,,[D,G,B,] | F,,[F,B,^D] F,,[^G,B,^C^E] | F,,[=G,B,^C=E] F,,[F,^A,E] | %37
 .[B,^D] z !>![=D,,=D,]2 || .G,.A,/.G,/ .B,.A,/.G,/ | .F,, !>!D,2 .D,, | .F,, !>!D,2 .D,, | %41
 .F,, !>!D,2 .D,, | G,, D,B,(=C | .B,)(!>!C.B,).A, | .G,/.A,/.B,/.C/ .B,/.A,/.G, | (F,E,D,C,) | %46
 .F,, !>!D,2 .D,, | .F,, !>!D,2 .D,, | .F,, !>!D,2 .D,, | .F,, !>!D,2 .D,, | !>!G,, D,B,(!>!=C | %51
 B,).A, .G, z | (E,_E,D,C,) | B,,_B,,A,,=E, | .[A,,E,] z z .[D,F,] | .[G,,G,] z .!^![G,,,G,,] z || %56
 !>!G,,[_B,D] G,,[B,D] | G,,[C_E] G,,[CE] | G,,[_B,D] G,,[B,D] | =F,,[_A,C] F,,[A,C] | %60
 [D,,D,][D,^F,C] =A,,[D,F,C] | [D,,D,][D,F,C] A,,[D,F,C] | [D,,D,][D,F,C] A,,[D,F,C] | %63
 [D,,D,][C,,C,][_B,,,_B,,][A,,,A,,] | !>!G,,[_B,D] G,,[B,D] | G,,[C_E] G,,[CE] | %66
 G,,[_B,D] G,,[B,D] | =F,,[_A,C] F,,[A,C] | [D,,D,][D,^F,C] =A,,[D,F,C] | %69
 [D,,D,][D,F,C] A,,[D,F,C] | [D,,D,][D,F,C] [D,,D,][D,F,C] | .[G,,G,] z !^![G,,,G,,] z || %72
 !>![G,_B,D]!>![G,B,D]!>![G,B,D]!>![G,B,D] | !>![G,_B,D]!>![G,B,D] !tenuto![_A,C=F]2 | %74
 !>![G,_B,D]!>![G,B,D][E,G,^C][D,F,=C] | .[G,_B,]!>![G,,D,]!>![G,,D,]!>![G,,D,] | %76
 !>![G,_B,D]!>![G,B,D]!>![G,B,D]!>![G,B,D] | !>![G,_B,D]!>![G,B,D] !tenuto![_A,C=F]2 | %78
 !>![G,_B,D]!>![G,B,D][E,G,^C][D,F,=C] | [D,^F,A,D]!>![D,,D,]!>![D,,D,]!>![D,,D,] | %80
 [D,,D,][D,,D,][D,,D,][D,,D,] | [D,,D,][D,,D,][D,,D,][D,,D,] | [_E,,_E,][E,,E,][E,,E,][E,,E,] | %83
 .[D,,D,]!>![D,,A,,]!>![D,,A,,]!>![D,,A,,] | [D,,D,][D,,D,][D,,D,][D,,D,] | %85
 [D,,D,][D,,D,][D,,D,][D,,D,] | [_E,,_E,][E,,E,][E,,E,][E,,E,] | %87
 !>![D,,D,]!>![C,,C,]!>![_B,,,_B,,]!>![A,,,A,,] || !>!G,,[_B,D] G,,[B,D] | G,,[C_E] G,,[CE] | %90
 G,,[_B,D] G,,[B,D] | =F,,[_A,C] F,,[A,C] | [D,,D,][D,^F,C] =A,,[D,F,C] | %93
 [D,,D,][D,F,C] A,,[D,F,C] | [D,,D,][D,F,C] A,,[D,F,C] | %95
 !>![D,,D,]!>![C,,C,]!>![_B,,,_B,,]!>![A,,,A,,] | !>!G,,[_B,D] G,,[B,D] | G,,[C_E] G,,[CE] | %98
 G,,[_B,D] G,,[B,D] | =F,,[_A,C] F,,[A,C] | [D,,D,][D,^F,C] =A,,[D,F,C] | %101
 [D,,D,][D,F,C] A,,[D,F,C] | [D,,D,][D,F,C] [D,,D,][D,F,C] | .[G,,G,] z !^![G,,,G,,] z || %104
 .G,.A,/.G,/ .B,.A,/.G,/ | .F,, !>!D,2 .D,, | .F,, !>!D,2 .D,, | .F,, !>!D,2 .D,, | %108
 !>!G,, D,B,(!>!=C | .B,)(!>!C.B,).A, | .G,/.A,/.B,/.C/ .B,/.A,/.G, | (F,E,D,C,) | %112
 .F,, !>!D,2 .D,, | .F,, !>!D,2 .D,, | .F,, !>!D,2 .D,, | .F,, !>!D,2 .D,, | !>!G,, D,B,(!>!=C | %117
 B,).A, .G, z | (E,_E,D,C,) | B,,_B,,A,,=E, | .[A,,E,] z z .[D,F,] | .[G,,G,] z !^![G,,,G,,] z |] %122
V:3
 x4 | x4 |[K:bass] x4 |[K:bass] x4 || .G,, !>!D,2 .D,, | x4 | x4 | x4 | x4 | x4 | x4 | x4 | x4 | %13
 x4 | x4 | x4 | x4 | x4 | x4 | x4 | x4 | x4 || x4 | x4 | x4 | x4 | x4 | x4 | x4 | x4 | x4 | x4 | %32
 x4 | x4 | x4 | x4 | x4 | x4 || .G,, !>!D,2 .D,, | x4 | x4 | x4 | x4 | x4 | x4 | x4 | x4 | x4 | %48
 x4 | x4 | x4 | x4 | x4 | x4 | x4 | x4 || x4 | x4 | x4 | x4 | x4 | x4 | x4 | x4 | x4 | x4 | x4 | %67
 x4 | x4 | x4 | x4 | x4 || x4 | x4 | x4 | x4 | x4 | x4 | x4 | x4 | x4 | x4 | x4 | x4 | x4 | x4 | %86
 x4 | x4 || x4 | x4 | x4 | x4 | x4 | x4 | x4 | x4 | x4 | x4 | x4 | x4 | x4 | x4 | x4 | x4 || %104
 .G,, !>!D,2 .D,, | x4 | x4 | x4 | x4 | x4 | x4 | x4 | x4 | x4 | x4 | x4 | x4 | x4 | x4 | x4 | x4 | %121
 x4 |] %122
V:4
 x4 | x4 | x4 | x4 || x4 | x2 z .[F,C] | x4 | x2 z .[F,C] | x3 !>!E | DED.=C | x4 | %11
 A,([G,C][F,B,][E,A,]) | x4 | x2 z .[F,C] | x4 | x2 z .[F,C] | x3 !>!E | D.C .B, x | G,2 x2 | x4 | %20
 x4 | x4 || x4 | x4 | x4 | x4 | x4 | x4 | x4 | x4 | x4 | x4 | x4 | x4 | x4 | x4 | x4 | x4 || x4 | %39
 x2 z .[F,C] | x4 | x2 z .[F,C] | x3 !>!E | DED.=C | x4 | A,([G,C][F,B,][E,A,]) | x4 | %47
 x2 z .[F,C] | x4 | x2 z .[F,C] | x3 !>!E | D.C .B, x | G,2 x2 | x4 | x4 | x4 || x4 | x4 | x4 | %59
 x4 | x4 | x4 | x4 | x4 | x4 | x4 | x4 | x4 | x4 | x4 | x4 | x4 || x4 | x4 | x4 | x4 | x4 | x4 | %78
 x4 | x4 | (c_BAc) | (_BAGA) | (_BAGB) | x4 | ([Ec]_BAc) | (_BAGA) | (_BAGB) | x4 || x4 | x4 | x4 | %91
 x4 | x4 | x4 | x4 | x4 | x4 | x4 | x4 | x4 | x4 | x4 | x4 | x4 || x4 | x2 z .[F,C] | x4 | %107
 x2 z .[F,C] | x3 !>!E | DED.=C | x4 | A,([G,C][F,B,][E,A,]) | x4 | x2 z .[F,C] | x4 | %115
 x2 z .[F,C] | x3 !>!E | D.C .B, x | G,2 x2 | x4 | x4 | x4 |] %122

